X:3185
T:Upperchurch No.2
O:ireland
M:2/4
L:1/16
Q:150
S:Irish Traditional    Arranged by John Layton 15/2/01
R:Polka
B:Mally - 100 Irish Polkas
K:G
BA|G2D2 G2A2|B3A BdBA|G2D2 G2A2|B3c BABd|e2d2 B2G2|
A3G ABcd|e2d2 c2A2|G3f G2::Bd|g4 g2e2|f3e f2d2|e2de f2e2|d3B d2Bd|
e2d2 B2G2|A3G ABcd|e2d2 c2A2|G3f G2:|
